X:1
T:Title
%%score { 1 | 2 }
L:1/8
M:3/4
K:Bb
V:1 treble nm="Grand Piano"
V:2 bass 
V:1
 z2 z2[Q:1/4=100] DE | F3 [DB] [Ec][DB] | [EG] [DF]3 dc | B3 c B[=EG] |[M:2/4] F4 |[M:1/4] DD | %6
[M:3/4] E2 E2 [DF]F | G2 [DF]2 [DB][B,D] | [B,C=E]2 [A,CF]2 [Ec][Ec] |[M:2/4] F4 |[M:1/4] FA | %11
[M:3/4] c3 [FA] [FB][Fc] | [Fd]2 [DB]4 | [Fc]2 [Ac]c Bc |[M:2/4] d4 |[M:1/4] [DF][DF] | %16
[M:3/4] [DB]3 [Ec] [Fd][FB] |[M:7/8] [EG]2 [DF]3 [DB]2 |[M:13/16] F/-F/-F-<FGAc3/2 | %19
[M:2/4] [DB]4 |] %20
V:2
 z2 z2 [B,,F,B,][C,F,B,] | [D,F,B,]3 [B,,F,] [B,,A,][B,,B,] | %2
 [E,B,] [B,,B,]3[K:treble] [B,F][A,D^F] | [G,DG]3[K:bass] [F,A,D] [G,B,D][C,B,] |[M:2/4] [F,A,C]4 | %5
[M:1/4] [B,,F,B,][B,,F,B,] |[M:3/4] [C,F,B,]2 [C,F,A,]2 [B,,F,][D,B,] | %7
 [E,B,E]2 [B,,B,]2 [B,,F,]G,, | C,2 C,2 [C,G,][C,B,] |[M:2/4] [F,A,]4 |[M:1/4] [F,A,][F,CF] | %11
[M:3/4] [F,A,F]3 [E,C] [D,B,][C,A,] | [B,,B,]2 [B,,B,]4 | %13
 [F,A,]2 [F,C][K:treble][F,EF] [G,DF][A,CF] |[M:2/4] [B,F]4 |[M:1/4][K:bass] [B,,B,][B,,B,] | %16
[M:3/4] [B,,F,]3 [B,,A,] [B,,B,][E,B,] |[M:7/8] [E,B,]2 [B,,B,]3 [B,,B,]2 | %18
[M:13/16] [F,B,D]/-[F,B,D]/-[F,B,D]-<[F,B,D][F,B,D][F,CE][F,A,E]3/2 |[M:2/4] [B,,B,]4 |] %20

